!!!OTL: Kuhreigen" MIS LIEB ISCH GAR WIT INNE
!!!ARE: Europa, Mitteleuropa, Emmenthal
!!!SCT: Z1306
!!!YEM: Copyright 1995, estate of Helmut Schaffrath.
**kern
*ICvox
*Ivox
*M2/4
*k[f#]
*G:
{16b
16cc
=1
8.dd
16cc
8b
16b
16g
=2
8a
8a
8r}
{16b
16cc
=3
16dd
16dd
16cc#
16dd
8b
16a
16g
=4
4a
8r}
{16a
16g
=5
8f#
8d
8g
8a
=6
8b
8g
8r}
{16b
16cc
=7
8.dd
16cc
8b
8a
=8
4g
8dd
16ee
16cc#
=9
8dd
16ee
16cc#
8dd
16ee
16cc#
=10
4dd
4g
=11
4gg
8r}
==
!!!AGN: Handwerker -, Bauern - Lied
!!!ONB: ESAC (Essen Associative Code) Database: ZUCCAL
!!!AMT: simple duple
!!!AIN: vox
!!!EED: Helmut Schaffrath
!!!EEV: 1.0
*-
